www/assets/icons/high_quality.svg

<svg width="24" height="24" viewBox="0 0 24 24" xmlns="http://www.w3.org/2000/svg" fill='currentColor'><path d="M19 4H5C3.89 4 3 4.9 3 6V18C3 19.1 3.89 20 5 20H19C20.1 20 21 19.1 21 18V6C21 4.9 20.1 4 19 4ZM11 15H9.5V13H7.5V15H6V9H7.5V11.5H9.5V9H11V15ZM18 14C18 14.55 17.55 15 17 15H16.25V16.5H14.75V15H14C13.45 15 13 14.55 13 14V10C13 9.45 13.45 9 14 9H17C17.55 9 18 9.45 18 10V14ZM14.5 13.5H16.5V10.5H14.5V13.5Z"/></svg>

<svg xmlns="http://www.w3.org/2000/svg" width="24" height="24" viewBox="0 0 24 24" fill='currentColor'><path d="M19 4H5a2 2 0 0 0-2 2v12a2 2 0 0 0 2 2h14c1.1 0 2-.9 2-2V6c0-1.1-.9-2-2-2m-8 11H9.5v-2h-2v2H6V9h1.5v2.5h2V9H11zm7-1c0 .55-.45 1-1 1h-.75v1.5h-1.5V15H14c-.55 0-1-.45-1-1v-4c0-.55.45-1 1-1h3c.55 0 1 .45 1 1zm-3.5-.5h2v-3h-2z"/></svg>
